X:1
T:Tante Greet
C:Bert Van Vreckem, januari 2006
Z:Bert Van Vreckem <bert.vanvreckem@gmail.com> 2006-01-26
R:Schottisch
M:2/4
L:1/4
P:ABA (CDC ABA)x2
K:G
D|:G G/A/|.B B| A/G/F/A/|B G/D/|G G/A/|.B B|[1{Bc}d/c/B/A/|G D:|[2{Bc}d/c/B/A/|G2||
|:e e/e/|d d|d/c/B/A/|B>d|e e/e/|d d|d/c/B/A/|G2:|
D|:G G/A/|.B B| A/G/F/A/|B G/D/|G G/A/|.B B|[1{Bc}d/c/B/A/|G D:|[2{Bc}d/c/B/A/|G2+fine+||
[K:C]|:e e/e/|f f|g g|f/e/d/c/|e e/e/|f f|g B|c2:|
|:c c/d/|e e|d/c/B/d/|e c/G/|c c/d/|e e|[1g/f/e/d/|c G:|[2g/f/e/d/|c2:|
[K:C]|:e e/e/|f f|g g|f/e/d/c/|e e/e/|f f|g B|c2+D.C.+:|
